X:1
T: Mr. Millstone's Inauguration
N:
C:Dave Wiesler
S:
A:
O:
R:
M:4/4
K:C
I:speed 100
%W: A1
% voice 1 (1 lines, 26 notes)
K:C
M:4/4
L:1/16
A2 |G2 E2 B2 c2 A6 B2 |c2 A2 e2 f2 d6 e2 |f4 e2 d2 c2 A2 A2 B2 |c2 A2 G2 E2 D6 A2 |
%W: A2
% voice 1 (1 lines, 26 notes)
G2 E2 B2 c2 A6 B2 |c2 A2 e2 f2 d6 e2 |f2 g2 a2 b2 c'2 c2 d2 f2 |e2 d2 c2 B2 c6 b2 |
%W: B1
% voice 1 (1 lines, 29 notes)
c'2 c2 c2 c'2 b2 c2 c2 b2 |a b c'2 b2 a2 e6 a2 |g2 e2 d2 e2 c2 A2 A2 B2 |c2 B2 c2 e2 d6 b2 |
%W: B2
% voice 1 (1 lines, 28 notes)
c'2 c2 c2 c'2 b2 c2 c2 b2 |a b c'2 b2 a2 g6 e2 |f2 g2 a2 b2 c'2 c2 d2 f2 |e2 d2 c2 B2 c6 ||
